icons/folder-serverless-open.svg

<?xml version="1.0" encoding="UTF-8"?>
<svg version="1.1" viewBox="0 0 24 24" xmlns="http://www.w3.org/2000/svg">
 <path d="M19 20H4C3.46957 20 2.96086 19.7893 2.58579 19.4142C2.21071 19.0391 2 18.5304 2 18V6C2 4.89 2.89 4 4 4H10L12 6H19C20.097 6 21 6.903 21 8H4V18L6.14 10H23.21L20.93 18.5C20.7 19.37 19.92 20 19 20Z" fill="#EF5350"/>
 <path d="m10.814 18.856h2.1923l-0.67924 2.0511h-1.5131zm0-3.8995h3.4836l-0.67913 2.0511h-2.8044zm0-3.8995h4.775l-0.67935 2.0511h-4.0957zm6.9356 0h5.4504v2.0511h-6.1295zm-1.2912 3.8995h6.7416v2.0511h-7.4209zm-1.2914 3.8995h8.033v2.0511h-8.7121z" fill="#ffcdd2" stroke-width="1.1059"/>
</svg>

<svg viewBox="0 0 24 24" xmlns="http://www.w3.org/2000/svg"><path d="M19 20H4a2 2 0 01-2-2V6c0-1.11.89-2 2-2h6l2 2h7c1.097 0 2 .903 2 2H4v10l2.14-8h17.07l-2.28 8.5c-.23.87-1.01 1.5-1.93 1.5z" fill="#EF5350"/><path d="M10.814 18.856h2.192l-.679 2.051h-1.513zm0-3.9h3.484l-.68 2.052h-2.804zm0-3.899h4.775l-.68 2.051h-4.095zm6.936 0h5.45v2.051h-6.13zm-1.292 3.9H23.2v2.05h-7.42zm-1.291 3.899H23.2v2.051h-8.712z" fill="#ffcdd2" stroke-width="1.106"/></svg>
